;FLAVOR:UltiGCode
;TIME:8573
;MATERIAL:10196
;MATERIAL2:0
;NOZZLE_DIAMETER:0.4
;MINX:71.317
;MINY:71.952
;MINZ:0.27
;MAXX:151.68
;MAXY:151.202
;MAXZ:5.97
;Generated with Cura_SteamEngine 4.9.1
M82 ;absolute extrusion mode
G0 F3000 Y50 ;avoid prime blob
G92 E0
G92 E0
G10
;LAYER_COUNT:39
;LAYER:0
M107
G0 F4800 X82.098 Y83.926 Z0.27
;TYPE:SKIRT
G11
G1 F1800 X87.917 Y78.772 E0.73458
G1 X88.71 Y78.155 E0.82953
G1 X89.497 Y77.681 E0.91635
G1 X96.373 Y74.072 E1.65019
G1 X97.197 Y73.698 E1.73571
G1 X97.778 Y73.498 E1.79377
G1 X98.647 Y73.236 E1.87955
G1 X100.364 Y72.698 E2.04958
G1 X101.663 Y72.303 E2.17789
G1 X102.433 Y72.11 E2.2529
G1 X103.218 Y71.996 E2.32786
G1 X104.011 Y71.962 E2.40287
G1 X104.803 Y72.008 E2.47784
G1 X105.586 Y72.133 E2.55277
G1 X106.508 Y72.388 E2.64317
G1 X106.613 Y72.424 E2.65366
G1 X107.35 Y72.719 E2.72868
G1 X108.053 Y73.086 E2.80362
G1 X108.716 Y73.522 E2.87861
G1 X109.331 Y74.023 E2.95357
G1 X109.893 Y74.583 E3.02854
G1 X110.425 Y75.237 E3.10821
G1 X111.469 Y76.671 E3.27583
G1 X112.512 Y75.234 E3.44363
G1 X113.01 Y74.616 E3.51863
G1 X113.567 Y74.052 E3.59354
G1 X114.179 Y73.546 E3.66858
G1 X114.838 Y73.105 E3.74352
G1 X115.538 Y72.732 E3.81847
G1 X116.331 Y72.411 E3.89932
G1 X116.436 Y72.375 E3.90981
G1 X117.199 Y72.155 E3.98485
G1 X117.979 Y72.014 E4.05975
G1 X118.77 Y71.952 E4.13473
G1 X119.564 Y71.97 E4.20978
G1 X120.351 Y72.068 E4.28473
G1 X121.265 Y72.285 E4.3735
G1 X122.629 Y72.696 E4.50812
G1 X125.27 Y73.51 E4.76928
G1 X126.015 Y73.782 E4.84423
G1 X126.61 Y74.063 E4.90641
G1 X133.503 Y77.681 E5.64208
G1 X134.309 Y78.168 E5.73107
G1 X135.084 Y78.772 E5.82392
G1 X140.902 Y83.926 E6.55843
G1 X141.464 Y84.476 E6.63274
G1 X141.995 Y85.112 E6.71104
G1 X143.06 Y86.533 E6.87885
G1 X144.741 Y88.768 E7.14313
G1 X145.166 Y89.336 E7.21017
G1 X145.609 Y89.995 E7.28521
G1 X145.983 Y90.694 E7.36012
G1 X146.373 Y91.689 E7.46112
G1 X146.441 Y91.905 E7.48251
G1 X146.64 Y92.673 E7.55749
G1 X146.762 Y93.457 E7.63247
G1 X146.804 Y94.25 E7.70751
G1 X146.766 Y95.042 E7.78244
G1 X146.649 Y95.827 E7.85744
G1 X146.503 Y96.426 E7.91571
G1 X146.466 Y96.556 E7.92848
G1 X146.211 Y97.307 E8.00343
G1 X145.881 Y98.029 E8.07845
G1 X145.295 Y98.984 E8.18433
G1 X144.089 Y100.668 E8.38007
G1 X146.088 Y101.317 E8.57868
G1 X146.83 Y101.599 E8.65369
G1 X147.539 Y101.955 E8.72866
G1 X148.209 Y102.381 E8.80369
G1 X148.832 Y102.871 E8.87859
G1 X149.403 Y103.422 E8.95358
G1 X149.923 Y104.037 E9.02969
G1 X149.99 Y104.125 E9.04014
G1 X150.438 Y104.779 E9.11505
G1 X150.818 Y105.476 E9.19007
G1 X151.126 Y106.207 E9.26503
G1 X151.359 Y106.966 E9.34006
G1 X151.514 Y107.744 E9.41503
G1 X151.594 Y108.608 E9.49703
G1 X151.68 Y110.967 E9.7201
G1 X151.669 Y111.76 E9.79504
G1 X151.628 Y112.203 E9.83709
G1 X150.688 Y119.945 E10.57408
G1 X150.552 Y120.727 E10.64909
G1 X150.409 Y121.271 E10.70224
G1 X149.46 Y124.416 E11.01268
G1 X149.132 Y125.306 E11.10231
G1 X147.323 Y129.427 E11.52762
G1 X146.968 Y130.137 E11.60263
G1 X146.631 Y130.68 E11.66303
G1 X145.708 Y132.042 E11.81851
G1 X143.958 Y134.64 E12.11452
G1 X142.608 Y136.619 E12.3409
G1 X142.129 Y137.251 E12.41584
G1 X141.588 Y137.832 E12.49087
G1 X140.992 Y138.355 E12.5658
G1 X140.346 Y138.815 E12.64074
G1 X139.656 Y139.209 E12.71583
G1 X138.674 Y139.624 E12.81657
G1 X138.564 Y139.662 E12.82757
G1 X137.802 Y139.883 E12.90255
G1 X137.022 Y140.027 E12.9775
G1 X136.231 Y140.09 E13.05249
G1 X135.438 Y140.074 E13.12744
G1 X134.65 Y139.979 E13.20245
G1 X133.582 Y139.716 E13.30639
G1 X131.63 Y139.088 E13.50016
G1 X131.628 Y141.097 E13.69001
G1 X131.587 Y141.889 E13.76496
G1 X131.467 Y142.673 E13.83991
G1 X131.268 Y143.441 E13.91488
G1 X130.993 Y144.186 E13.98993
G1 X130.644 Y144.899 E14.06495
G1 X130.236 Y145.558 E14.13819
G1 X130.176 Y145.645 E14.14818
G1 X129.693 Y146.275 E14.2232
G1 X129.149 Y146.852 E14.29813
G1 X128.55 Y147.373 E14.37316
G1 X127.902 Y147.83 E14.44809
G1 X127.211 Y148.22 E14.52307
G1 X126.566 Y148.506 E14.58975
G1 X125.826 Y148.796 E14.66486
G1 X124.838 Y149.11 E14.76282
G1 X117.292 Y150.97 E15.49726
G1 X116.36 Y151.141 E15.58681
G1 X115.383 Y151.202 E15.67931
G1 X107.617 Y151.202 E16.4132
G1 X106.64 Y151.141 E16.50571
G1 X105.707 Y150.97 E16.59534
G1 X98.165 Y149.11 E17.32942
G1 X97.406 Y148.881 E17.40434
G1 X96.713 Y148.614 E17.47452
G1 X96.096 Y148.365 E17.53739
G1 X95.38 Y148.023 E17.61238
G1 X94.703 Y147.61 E17.68732
G1 X94.07 Y147.131 E17.76233
G1 X93.489 Y146.591 E17.83729
G1 X92.965 Y145.995 E17.91229
G1 X92.57 Y145.451 E17.97582
G1 X92.511 Y145.362 E17.98591
G1 X92.107 Y144.68 E18.06081
G1 X91.773 Y143.96 E18.13582
G1 X91.513 Y143.21 E18.21083
G1 X91.33 Y142.438 E18.28581
G1 X91.226 Y141.651 E18.36083
G1 X91.2 Y141.02 E18.42051
G1 X91.198 Y139.195 E18.59297
G1 X89.471 Y139.754 E18.76451
G1 X88.705 Y139.96 E18.83947
G1 X87.922 Y140.088 E18.91444
G1 X87.13 Y140.137 E18.98943
G1 X86.337 Y140.105 E19.06443
G1 X85.551 Y139.994 E19.13944
G1 X84.554 Y139.733 E19.23683
G1 X84.443 Y139.696 E19.24789
G1 X83.704 Y139.407 E19.32288
G1 X82.997 Y139.046 E19.39789
G1 X82.331 Y138.615 E19.47286
G1 X81.711 Y138.12 E19.54783
G1 X81.144 Y137.564 E19.62288
G1 X80.429 Y136.665 E19.73143
G1 X79.05 Y134.644 E19.96263
G1 X76.374 Y130.689 E20.41389
G1 X75.917 Y129.925 E20.49802
G1 X75.522 Y129.048 E20.58892
G1 X72.763 Y121.768 E21.32463
G1 X72.52 Y121.013 E21.39958
G1 X72.309 Y119.926 E21.50422
G1 X71.372 Y112.207 E22.23902
G1 X71.317 Y111.415 E22.31404
G1 X71.325 Y110.859 E22.36659
G1 X71.35 Y110.362 E22.41361
G1 X71.387 Y109.182 E22.52518
G1 X71.426 Y108.349 E22.60398
G1 X71.503 Y107.559 E22.67899
G1 X71.659 Y106.781 E22.75398
G1 X71.892 Y106.023 E22.82892
G1 X72.201 Y105.292 E22.90391
G1 X72.582 Y104.596 E22.9789
G1 X73.045 Y103.923 E23.05609
G1 X73.111 Y103.837 E23.06634
G1 X73.625 Y103.232 E23.14136
G1 X74.197 Y102.683 E23.21628
G1 X74.822 Y102.194 E23.29127
G1 X75.493 Y101.77 E23.36628
G1 X76.203 Y101.416 E23.44125
G1 X76.916 Y101.144 E23.51337
G1 X78.651 Y100.578 E23.68583
G1 X77.583 Y99.105 E23.85776
G1 X77.151 Y98.44 E23.9327
G1 X76.787 Y97.735 E24.00768
G1 X76.496 Y96.997 E24.08265
G1 X76.281 Y96.233 E24.15765
G1 X76.144 Y95.452 E24.23258
G1 X76.084 Y94.483 E24.32433
G1 X76.084 Y94.368 E24.33519
G1 X76.124 Y93.576 E24.41013
G1 X76.243 Y92.791 E24.48516
G1 X76.441 Y92.023 E24.56011
G1 X76.716 Y91.278 E24.63516
G1 X77.063 Y90.565 E24.71009
G1 X77.608 Y89.711 E24.80583
G1 X78.747 Y88.158 E24.98783
G1 X80.977 Y85.148 E25.34183
G1 X81.562 Y84.448 E25.42804
G1 X82.098 Y83.926 E25.49874
G0 F4800 X82.33 Y84.188
G1 F1800 X88.149 Y79.034 E26.23332
G1 X88.908 Y78.444 E26.32417
G1 X89.66 Y77.991 E26.40713
G1 X96.536 Y74.382 E27.14098
G1 X97.324 Y74.025 E27.22273
G1 X97.879 Y73.833 E27.27823
G1 X98.748 Y73.571 E27.364
G1 X100.404 Y73.052 E27.528
G1 X101.765 Y72.637 E27.66246
G1 X102.517 Y72.45 E27.73569
G1 X103.285 Y72.342 E27.80898
G1 X104.061 Y72.313 E27.88236
G1 X104.835 Y72.364 E27.95566
G1 X105.599 Y72.494 E28.0289
G1 X106.395 Y72.719 E28.10707
G1 X106.5 Y72.755 E28.11756
G1 X107.219 Y73.044 E28.19078
G1 X107.905 Y73.405 E28.26404
G1 X108.551 Y73.836 E28.33743
G1 X109.148 Y74.33 E28.41065
G1 X109.692 Y74.883 E28.48396
G1 X110.142 Y75.443 E28.55185
G1 X111.47 Y77.266 E28.76498
G1 X112.795 Y75.44 E28.97818
G1 X113.282 Y74.836 E29.0515
G1 X113.829 Y74.286 E29.12481
G1 X114.43 Y73.796 E29.19809
G1 X115.078 Y73.369 E29.27142
G1 X115.766 Y73.012 E29.34467
G1 X116.444 Y72.742 E29.41363
G1 X116.549 Y72.706 E29.42412
G1 X117.295 Y72.492 E29.49746
G1 X118.059 Y72.357 E29.57078
G1 X118.832 Y72.301 E29.64402
G1 X119.608 Y72.324 E29.71738
G1 X120.376 Y72.428 E29.79062
G1 X121.164 Y72.62 E29.86727
G1 X122.525 Y73.031 E30.00162
G1 X125.166 Y73.845 E30.26278
G1 X125.895 Y74.111 E30.33611
G1 X126.447 Y74.373 E30.39385
G1 X133.34 Y77.991 E31.12952
G1 X134.111 Y78.457 E31.21465
G1 X134.852 Y79.034 E31.3034
G1 X140.67 Y84.188 E32.03791
G1 X141.207 Y84.715 E32.10901
G1 X141.715 Y85.322 E32.18381
G1 X142.78 Y86.743 E32.35162
G1 X144.461 Y88.978 E32.6159
G1 X144.886 Y89.546 E32.68294
G1 X145.318 Y90.19 E32.75622
G1 X145.682 Y90.875 E32.82953
G1 X146.039 Y91.794 E32.9227
G1 X146.107 Y92.01 E32.9441
G1 X146.301 Y92.761 E33.01739
G1 X146.417 Y93.528 E33.0907
G1 X146.454 Y94.303 E33.16402
G1 X146.411 Y95.077 E33.23728
G1 X146.288 Y95.843 E33.31059
G1 X146.167 Y96.33 E33.35801
G1 X146.13 Y96.46 E33.37079
G1 X145.879 Y97.194 E33.44409
G1 X145.554 Y97.898 E33.51737
G1 X145.011 Y98.78 E33.61524
G1 X143.526 Y100.854 E33.8563
G1 X145.98 Y101.65 E34.1001
G1 X146.705 Y101.927 E34.17344
G1 X147.397 Y102.277 E34.24672
G1 X148.049 Y102.697 E34.32001
G1 X148.655 Y103.181 E34.3933
G1 X149.207 Y103.726 E34.46661
G1 X149.644 Y104.249 E34.53101
G1 X149.711 Y104.337 E34.54146
G1 X150.149 Y104.977 E34.61475
G1 X150.518 Y105.659 E34.68803
G1 X150.815 Y106.376 E34.76137
G1 X151.036 Y107.119 E34.83462
G1 X151.18 Y107.881 E34.90791
G1 X151.244 Y108.621 E34.9781
G1 X151.33 Y110.98 E35.20117
G1 X151.318 Y111.755 E35.27442
G1 X151.28 Y112.161 E35.31295
G1 X150.34 Y119.903 E36.04994
G1 X150.207 Y120.667 E36.12323
G1 X150.074 Y121.17 E36.17239
G1 X149.125 Y124.315 E36.48283
G1 X148.811 Y125.166 E36.56855
G1 X147.002 Y129.287 E36.99386
G1 X146.654 Y129.98 E37.06714
G1 X146.341 Y130.483 E37.12312
G1 X145.431 Y131.827 E37.27651
G1 X143.669 Y134.443 E37.57456
G1 X142.319 Y136.422 E37.80095
G1 X141.85 Y137.039 E37.87419
G1 X141.319 Y137.605 E37.94753
G1 X140.733 Y138.113 E38.02082
G1 X140.098 Y138.558 E38.09409
G1 X139.42 Y138.935 E38.1674
G1 X138.56 Y139.294 E38.25547
G1 X138.45 Y139.332 E38.26647
G1 X137.705 Y139.547 E38.33974
G1 X136.941 Y139.684 E38.41309
G1 X136.168 Y139.742 E38.48635
G1 X135.393 Y139.72 E38.55961
G1 X134.624 Y139.618 E38.63292
G1 X133.689 Y139.383 E38.72403
G1 X131.28 Y138.608 E38.96317
G1 X131.278 Y141.096 E39.19828
G1 X131.237 Y141.871 E39.27162
G1 X131.117 Y142.637 E39.34489
G1 X130.918 Y143.387 E39.41822
G1 X130.643 Y144.112 E39.4915
G1 X130.295 Y144.805 E39.56478
G1 X129.948 Y145.359 E39.62655
G1 X129.888 Y145.446 E39.63654
G1 X129.415 Y146.061 E39.70986
G1 X128.882 Y146.624 E39.78312
G1 X128.293 Y147.129 E39.85644
G1 X127.655 Y147.571 E39.92979
G1 X126.976 Y147.945 E40.00304
G1 X126.439 Y148.18 E40.05843
G1 X125.699 Y148.47 E40.13354
G1 X124.754 Y148.77 E40.22724
G1 X117.208 Y150.63 E40.96168
G1 X116.316 Y150.794 E41.04738
G1 X115.383 Y150.852 E41.13572
G1 X107.617 Y150.852 E41.86961
G1 X106.684 Y150.794 E41.95795
G1 X105.791 Y150.63 E42.04375
G1 X98.249 Y148.77 E42.77782
G1 X97.507 Y148.546 E42.85107
G1 X96.833 Y148.285 E42.91937
G1 X96.231 Y148.042 E42.98072
G1 X95.532 Y147.707 E43.05397
G1 X94.871 Y147.301 E43.12727
G1 X94.255 Y146.829 E43.20061
G1 X93.691 Y146.296 E43.27394
G1 X93.185 Y145.708 E43.34725
G1 X92.862 Y145.258 E43.39959
G1 X92.803 Y145.169 E43.40969
G1 X92.408 Y144.501 E43.48302
G1 X92.084 Y143.796 E43.55634
G1 X91.835 Y143.062 E43.62959
G1 X91.662 Y142.306 E43.70288
G1 X91.568 Y141.536 E43.77618
G1 X91.55 Y141.019 E43.82507
G1 X91.547 Y138.713 E44.04299
G1 X89.363 Y139.421 E44.25995
G1 X88.614 Y139.621 E44.33321
G1 X87.848 Y139.744 E44.40652
G1 X87.073 Y139.787 E44.47987
G1 X86.299 Y139.75 E44.5531
G1 X85.532 Y139.634 E44.6264
G1 X84.664 Y139.401 E44.71133
G1 X84.553 Y139.364 E44.72239
G1 X83.831 Y139.081 E44.79567
G1 X83.142 Y138.725 E44.86896
G1 X82.493 Y138.3 E44.94227
G1 X81.891 Y137.811 E45.01557
G1 X81.343 Y137.263 E45.0888
G1 X80.718 Y136.467 E45.18444
G1 X79.34 Y134.448 E45.41544
G1 X76.664 Y130.493 E45.8667
G1 X76.227 Y129.762 E45.94718
G1 X75.849 Y128.924 E46.03406
G1 X73.09 Y121.644 E46.76977
G1 X72.853 Y120.905 E46.8431
G1 X72.657 Y119.884 E46.94135
G1 X71.72 Y112.165 E47.67615
G1 X71.666 Y111.391 E47.74947
G1 X71.675 Y110.877 E47.79805
G1 X71.697 Y110.441 E47.83931
G1 X71.736 Y109.198 E47.95683
G1 X71.775 Y108.365 E48.03563
G1 X71.851 Y107.593 E48.10894
G1 X72.007 Y106.833 E48.18226
G1 X72.239 Y106.093 E48.25554
G1 X72.547 Y105.381 E48.32885
G1 X72.926 Y104.705 E48.40209
G1 X73.322 Y104.136 E48.4676
G1 X73.388 Y104.05 E48.47784
G1 X73.892 Y103.459 E48.55125
G1 X74.453 Y102.924 E48.6245
G1 X75.067 Y102.45 E48.6978
G1 X75.726 Y102.041 E48.7711
G1 X76.423 Y101.702 E48.84434
G1 X77.025 Y101.477 E48.90507
G1 X79.217 Y100.762 E49.12296
G1 X77.867 Y98.9 E49.3403
G1 X77.444 Y98.249 E49.41367
G1 X77.091 Y97.559 E49.48691
G1 X76.811 Y96.836 E49.56018
G1 X76.607 Y96.087 E49.63354
G1 X76.481 Y95.322 E49.7068
G1 X76.434 Y94.483 E49.78621
G1 X76.434 Y94.368 E49.79708
G1 X76.474 Y93.593 E49.87041
G1 X76.593 Y92.827 E49.94367
G1 X76.791 Y92.077 E50.01697
G1 X77.065 Y91.351 E50.0903
G1 X77.412 Y90.658 E50.16354
G1 X77.891 Y89.918 E50.24685
G1 X79.029 Y88.366 E50.42871
G1 X81.259 Y85.356 E50.78271
G1 X81.818 Y84.687 E50.8651
G1 X82.33 Y84.188 E50.93266
G0 F4800 X82.562 Y84.45
G1 F1800 X88.381 Y79.296 E51.66724
G1 X89.086 Y78.745 E51.7518
G1 X89.822 Y78.301 E51.83303
G1 X96.698 Y74.692 E52.56687
G1 X97.45 Y74.351 E52.6449
G1 X97.98 Y74.168 E52.69789
G1 X98.849 Y73.906 E52.78366
G1 X100.508 Y73.386 E52.94796
G1 X101.867 Y72.972 E53.08221
G1 X102.602 Y72.791 E53.15374
G1 X103.352 Y72.687 E53.22529
G1 X104.109 Y72.664 E53.29686
G1 X104.864 Y72.72 E53.36841
G1 X105.609 Y72.856 E53.43997
G1 X106.281 Y73.05 E53.50607
G1 X106.386 Y73.086 E53.51656
G1 X107.088 Y73.369 E53.58809
G1 X107.757 Y73.725 E53.6597
G1 X108.385 Y74.149 E53.73131
G1 X108.964 Y74.636 E53.8028
G1 X109.489 Y75.183 E53.87445
G1 X109.859 Y75.649 E53.93068
G1 X111.47 Y77.861 E54.18928
G1 X113.078 Y75.645 E54.44801
G1 X113.555 Y75.057 E54.51956
G1 X114.091 Y74.522 E54.59113
G1 X114.68 Y74.046 E54.66269
G1 X115.317 Y73.635 E54.73433
G1 X115.993 Y73.294 E54.80588
G1 X116.558 Y73.073 E54.86321
G1 X116.663 Y73.037 E54.8737
G1 X117.391 Y72.829 E54.94525
G1 X118.138 Y72.7 E55.01689
G1 X118.893 Y72.65 E55.08839
G1 X119.65 Y72.679 E55.15998
G1 X120.399 Y72.789 E55.23152
G1 X121.063 Y72.955 E55.2962
G1 X122.422 Y73.365 E55.43034
G1 X125.063 Y74.179 E55.6915
G1 X125.774 Y74.44 E55.76308
G1 X126.285 Y74.683 E55.81655
G1 X133.178 Y78.301 E56.55221
G1 X133.914 Y78.745 E56.63344
G1 X134.62 Y79.296 E56.71807
G1 X140.438 Y84.45 E57.45258
G1 X140.951 Y84.953 E57.52047
G1 X141.434 Y85.532 E57.59173
G1 X142.5 Y86.954 E57.75967
G1 X144.606 Y89.755 E58.09084
G1 X145.027 Y90.385 E58.16244
G1 X145.379 Y91.055 E58.23397
G1 X145.705 Y91.899 E58.31947
G1 X145.773 Y92.115 E58.34087
G1 X145.962 Y92.849 E58.41249
G1 X146.072 Y93.598 E58.48403
G1 X146.103 Y94.355 E58.55563
G1 X146.055 Y95.111 E58.62721
G1 X145.926 Y95.857 E58.69876
G1 X145.793 Y96.364 E58.74829
G1 X145.547 Y97.081 E58.81992
G1 X145.228 Y97.767 E58.89142
G1 X144.726 Y98.577 E58.98147
G1 X142.963 Y101.039 E59.26763
G1 X145.872 Y101.983 E59.55664
G1 X146.579 Y102.254 E59.62819
G1 X147.254 Y102.599 E59.69983
G1 X147.888 Y103.012 E59.77133
G1 X148.475 Y103.491 E59.84293
G1 X149.009 Y104.028 E59.9145
G1 X149.366 Y104.461 E59.96753
G1 X149.433 Y104.549 E59.97798
G1 X149.859 Y105.175 E60.04954
G1 X150.217 Y105.842 E60.12107
G1 X150.503 Y106.543 E60.19262
G1 X150.713 Y107.271 E60.26422
G1 X150.845 Y108.017 E60.33581
G1 X150.894 Y108.634 E60.3943
G1 X150.98 Y110.993 E60.61737
G1 X150.933 Y112.119 E60.72387
G1 X149.993 Y119.861 E61.46087
G1 X149.862 Y120.607 E61.53244
G1 X149.739 Y121.069 E61.57762
G1 X148.79 Y124.214 E61.88806
G1 X148.491 Y125.025 E61.96974
G1 X146.682 Y129.146 E62.39505
G1 X146.341 Y129.822 E62.4666
G1 X146.052 Y130.287 E62.51833
G1 X145.129 Y131.649 E62.67381
G1 X143.38 Y134.245 E62.96962
G1 X142.03 Y136.224 E63.196
G1 X141.571 Y136.827 E63.26762
G1 X141.051 Y137.377 E63.33914
G1 X140.476 Y137.87 E63.41072
G1 X139.852 Y138.299 E63.48228
