;FLAVOR:UltiGCode
;TIME:14012
;MATERIAL:11390
;MATERIAL2:0
;NOZZLE_DIAMETER:0.4
;MINX:67.325
;MINY:68.278
;MINZ:0.324
;MAXX:155.662
;MAXY:154.874
;MAXZ:6.794
;Generated with Cura_SteamEngine 4.9.1
M82 ;absolute extrusion mode
G0 F3000 Y50 ;avoid prime blob
G92 E0
G92 E0
G10
;LAYER_COUNT:58
;LAYER:-8
M107
G0 F7200 X79.085 Y81.65 Z0.324
;TYPE:SUPPORT-INTERFACE
G11
G1 F1012.5 X79.932 Y80.828 E0.30593
G1 X80.002 Y80.763 E0.33069
G1 X85.184 Y76.176 E2.12449
G1 X85.981 Y75.518 E2.39238
G1 X86.133 Y75.404 E2.44163
G1 X86.842 Y74.903 E2.66665
G1 X87.009 Y74.795 E2.7182
G1 X88.071 Y74.17 E3.03761
G1 X88.158 Y74.121 E3.06349
G1 X92.936 Y71.604 E4.46328
G1 X92.942 Y71.614 E4.4663
G1 X93.503 Y71.263 E4.63783
G1 X94.283 Y70.813 E4.87124
G1 X94.451 Y70.725 E4.92039
G1 X95.184 Y70.37 E5.1315
G1 X95.65 Y70.143 E5.26585
G1 X96.701 Y69.712 E5.56029
G1 X97.066 Y69.581 E5.66081
G1 X97.96 Y69.296 E5.90402
G1 X98.103 Y69.256 E5.94251
G1 X98.979 Y69.047 E6.17594
G1 X99.178 Y69.009 E6.22845
G1 X100.341 Y68.831 E6.53341
G1 X100.509 Y68.809 E6.57733
G1 X102.645 Y68.583 E7.13407
G1 X102.752 Y68.574 E7.16191
G1 X103.684 Y68.51 E7.40405
G1 X103.854 Y68.504 E7.44814
G1 X104.733 Y68.509 E7.67598
G1 X104.931 Y68.517 E7.72734
G1 X106.046 Y68.608 E8.01731
G1 X107.666 Y68.805 E8.44031
G1 X107.758 Y68.818 E8.46439
G1 X108.708 Y68.969 E8.71372
G1 X108.857 Y68.998 E8.75307
G1 X109.713 Y69.2 E8.98104
G1 X109.961 Y69.268 E9.04769
G1 X110.617 Y69.405 E9.2214
G1 X111.297 Y69.459 E9.39821
G1 X111.981 Y69.427 E9.5757
G1 X112.731 Y69.289 E9.77336
G1 X113.605 Y69.061 E10.00748
G1 X114.198 Y68.933 E10.16473
G1 X115.219 Y68.752 E10.4335
G1 X115.354 Y68.733 E10.46883
G1 X116.276 Y68.638 E10.70908
G1 X116.424 Y68.629 E10.74751
G1 X117.558 Y68.603 E11.04152
G1 X117.637 Y68.603 E11.062
G1 X120.778 Y68.663 E11.8763
G1 X120.854 Y68.665 E11.896
G1 X121.808 Y68.719 E12.14367
G1 X121.952 Y68.732 E12.18115
G1 X123.045 Y68.876 E12.4669
G1 X123.619 Y68.977 E12.61797
G1 X124.55 Y69.171 E12.86447
G1 X124.708 Y69.211 E12.90672
G1 X125.571 Y69.458 E13.13939
G1 X126.184 Y69.667 E13.30726
G1 X126.437 Y69.763 E13.3774
G1 X127.43 Y70.193 E13.65788
G1 X127.914 Y70.405 E13.79484
G1 X128.022 Y70.46 E13.82625
G1 X128.605 Y70.741 E13.994
G1 X128.764 Y70.824 E14.04049
G1 X129.515 Y71.255 E14.26493
G1 X129.711 Y71.379 E14.32505
G1 X130.214 Y71.68 E14.47699
G1 X134.831 Y74.107 E15.82898
G1 X134.918 Y74.155 E15.85474
G1 X135.749 Y74.631 E16.10297
G1 X135.874 Y74.709 E16.14116
G1 X136.613 Y75.209 E16.37243
G1 X136.753 Y75.312 E16.41748
G1 X137.719 Y76.089 E16.73881
G1 X137.836 Y76.186 E16.77821
G1 X142.849 Y80.629 E18.51447
G1 X143.571 Y81.298 E18.7696
G1 X143.721 Y81.45 E18.82495
G1 X144.607 Y82.424 E19.16624
G1 X144.976 Y82.855 E19.3133
G1 X145.389 Y83.296 E19.46991
G1 X146.04 Y83.992 E19.71693
G1 X146.14 Y84.108 E19.75663
G1 X146.83 Y84.972 E20.04323
G1 X147.091 Y85.325 E20.15702
G1 X147.624 Y86.11 E20.40296
G1 X147.701 Y86.234 E20.44079
G1 X148.161 Y87.032 E20.67954
G1 X148.238 Y87.18 E20.72278
G1 X148.791 Y88.366 E21.06197
G1 X148.845 Y88.492 E21.0975
G1 X149.989 Y91.308 E21.88534
G1 X150.429 Y92.466 E22.20643
G1 X150.761 Y93.436 E22.47217
G1 X150.806 Y93.585 E22.51252
G1 X151.038 Y94.471 E22.74991
G1 X151.072 Y94.623 E22.79028
G1 X151.236 Y95.51 E23.02409
G1 X151.26 Y95.677 E23.06782
G1 X151.357 Y96.561 E23.29833
G1 X151.379 Y96.96 E23.40191
G1 X151.444 Y97.627 E23.57561
G1 X151.597 Y98.292 E23.75248
G1 X151.832 Y98.934 E23.92969
G1 X151.906 Y99.129 E23.98375
G1 X152.619 Y100.343 E24.34868
G1 X152.714 Y100.516 E24.39983
G1 X153.097 Y101.295 E24.62483
G1 X153.18 Y101.485 E24.67858
G1 X153.665 Y102.74 E25.02732
G1 X153.712 Y102.868 E25.06266
G1 X154.065 Y103.944 E25.35619
G1 X154.086 Y103.995 E25.37048
G1 X154.764 Y106.218 E25.97289
G1 X154.8 Y106.346 E26.00735
G1 X155.128 Y107.635 E26.35211
G1 X155.148 Y107.744 E26.38083
G1 X155.301 Y108.653 E26.61976
G1 X155.322 Y108.805 E26.65953
G1 X155.407 Y109.708 E26.89462
G1 X155.417 Y109.881 E26.93954
G1 X155.437 Y110.844 E27.1892
G1 X155.437 Y110.967 E27.22109
G1 X155.422 Y111.867 E27.4544
G1 X155.418 Y112.256 E27.55523
G1 X155.379 Y113.209 E27.80246
G1 X155.368 Y113.36 E27.8417
G1 X155.288 Y114.115 E28.03849
G1 X155.217 Y114.636 E28.17478
G1 X155.194 Y114.785 E28.21386
G1 X155.039 Y115.683 E28.45006
G1 X154.986 Y115.931 E28.5158
G1 X154.871 Y116.55 E28.67899
G1 X154.77 Y117.383 E28.89648
G1 X154.726 Y117.717 E28.9838
G1 X154.504 Y119.253 E29.38607
G1 X154.481 Y119.391 E29.42233
G1 X154.217 Y120.727 E29.77532
G1 X154.178 Y120.899 E29.82104
G1 X154.008 Y121.578 E30.00246
G1 X153.71 Y122.61 E30.28089
G1 X153.673 Y122.723 E30.31171
G1 X153.486 Y123.25 E30.45665
G1 X150.858 Y130.183 E32.37846
G1 X150.79 Y130.353 E32.42591
G1 X150.443 Y131.174 E32.65694
G1 X150.365 Y131.342 E32.70495
G1 X149.957 Y132.14 E32.93726
G1 X149.661 Y132.659 E33.09213
G1 X149.095 Y133.595 E33.37565
G1 X148.991 Y133.776 E33.42976
G1 X148.442 Y134.773 E33.72477
G1 X148.109 Y135.324 E33.89164
G1 X148.029 Y135.448 E33.92989
G1 X147.311 Y136.511 E34.26239
G1 X147.022 Y136.897 E34.38737
G1 X146.453 Y137.612 E34.62422
G1 X146.107 Y138.014 E34.7617
G1 X145.885 Y138.307 E34.85698
G1 X145.328 Y139.011 E35.08967
G1 X145.19 Y139.172 E35.14463
G1 X144.603 Y139.811 E35.36954
G1 X144.466 Y139.949 E35.41994
G1 X143.837 Y140.541 E35.64383
G1 X143.699 Y140.662 E35.6914
G1 X143.072 Y141.175 E35.90139
G1 X143.008 Y141.227 E35.92276
G1 X142.212 Y141.835 E36.18238
G1 X141.54 Y142.32 E36.39719
G1 X141.425 Y142.393 E36.4325
G1 X140.272 Y143.091 E36.78185
G1 X140.168 Y143.15 E36.81285
G1 X139.308 Y143.613 E37.06601
G1 X138.368 Y144.076 E37.33761
G1 X138.239 Y144.135 E37.37438
G1 X137.705 Y144.359 E37.52448
G1 X137.652 Y144.379 E37.53916
G1 X137.042 Y144.652 E37.71238
G1 X136.459 Y145.006 E37.88917
G1 X135.92 Y145.435 E38.06773
G1 X135.308 Y146.093 E38.30065
G1 X134.726 Y146.838 E38.5457
G1 X134.632 Y146.949 E38.5834
G1 X134.029 Y147.613 E38.81589
G1 X133.876 Y147.767 E38.87215
G1 X132.967 Y148.612 E39.19384
G1 X132.88 Y148.689 E39.22396
G1 X132.073 Y149.368 E39.49732
G1 X131.336 Y149.945 E39.73994
G1 X131.196 Y150.046 E39.78468
G1 X130.179 Y150.715 E40.10021
G1 X129.923 Y150.867 E40.17738
G1 X129.109 Y151.311 E40.41771
G1 X128.951 Y151.391 E40.46362
G1 X128.147 Y151.756 E40.69248
G1 X127.978 Y151.825 E40.7398
G1 X127.199 Y152.113 E40.95507
G1 X125.435 Y152.712 E41.43794
G1 X124.3 Y153.091 E41.7481
G1 X124.19 Y153.125 E41.77795
G1 X123.256 Y153.399 E42.03024
G1 X123.164 Y153.423 E42.05489
G1 X122.528 Y153.568 E42.22397
G1 X120.94 Y153.896 E42.64427
G1 X118.635 Y154.361 E43.25376
G1 X117.688 Y154.517 E43.50253
G1 X117.516 Y154.539 E43.54747
G1 X116.609 Y154.621 E43.78353
G1 X116.472 Y154.629 E43.8191
G1 X115.754 Y154.649 E44.00528
G1 X107.235 Y154.648 E46.2134
G1 X106.234 Y154.612 E46.47303
G1 X106.111 Y154.603 E46.505
G1 X105.162 Y154.498 E46.75248
G1 X105.066 Y154.485 E46.77759
G1 X104.241 Y154.338 E46.9948
G1 X101.861 Y153.849 E47.62458
G1 X100.203 Y153.5 E48.06375
G1 X99.299 Y153.278 E48.30503
G1 X99.175 Y153.243 E48.33842
G1 X98.557 Y153.05 E48.50624
G1 X97.469 Y152.683 E48.80386
G1 X96.222 Y152.258 E49.14534
G1 X95.405 Y151.949 E49.37175
G1 X95.287 Y151.902 E49.40467
G1 X94.389 Y151.53 E49.65661
G1 X93.439 Y151.096 E49.92733
G1 X93.268 Y151.01 E49.97694
G1 X92.473 Y150.571 E50.21234
G1 X92.381 Y150.518 E50.23986
G1 X91.572 Y149.993 E50.48984
G1 X91.423 Y149.887 E50.53723
G1 X90.562 Y149.225 E50.81874
G1 X90.435 Y149.122 E50.86113
G1 X89.34 Y148.204 E51.2315
G1 X88.592 Y147.529 E51.49265
G1 X88.44 Y147.381 E51.54764
G1 X87.83 Y146.743 E51.77643
G1 X87.403 Y146.234 E51.94864
G1 X86.945 Y145.744 E52.12249
G1 X86.419 Y145.309 E52.29942
G1 X85.842 Y144.943 E52.47652
G1 X85.211 Y144.648 E52.65707
G1 X84.604 Y144.404 E52.82664
G1 X83.809 Y144.025 E53.05492
G1 X83.658 Y143.946 E53.0991
G1 X82.842 Y143.482 E53.34241
G1 X82.775 Y143.441 E53.36277
G1 X82.217 Y143.08 E53.53503
G1 X81.024 Y142.261 E53.91011
G1 X80.384 Y141.796 E54.11516
G1 X79.624 Y141.167 E54.37087
G1 X79.488 Y141.046 E54.41805
G1 X78.834 Y140.418 E54.65307
G1 X78.733 Y140.314 E54.69065
G1 X78.113 Y139.622 E54.93147
G1 X78.021 Y139.513 E54.96844
G1 X77.494 Y138.839 E55.19021
G1 X76.198 Y137.187 E55.73445
G1 X75.872 Y136.76 E55.8737
G1 X75.78 Y136.633 E55.91435
G1 X75.022 Y135.53 E56.26124
G1 X74.911 Y135.356 E56.31474
G1 X74.453 Y134.602 E56.54341
G1 X74.39 Y134.494 E56.57582
G1 X73.935 Y133.68 E56.81753
G1 X73.713 Y133.273 E56.9377
G1 X73.326 Y132.631 E57.132
G1 X72.886 Y131.841 E57.36638
G1 X72.797 Y131.662 E57.4182
G1 X72.211 Y130.34 E57.79302
G1 X72.156 Y130.209 E57.82984
G1 X69.498 Y123.199 E59.77307
G1 X69.199 Y122.313 E60.01544
G1 X69.147 Y122.134 E60.06376
G1 X68.845 Y120.917 E60.38877
G1 X68.672 Y119.85 E60.66895
G1 X68.564 Y119.34 E60.80407
G1 X68.433 Y118.844 E60.93705
G1 X68.39 Y118.651 E60.9883
G1 X68.183 Y117.513 E61.28811
G1 X67.743 Y114.386 E62.10661
G1 X67.727 Y114.253 E62.14133
G1 X67.633 Y113.341 E62.37898
G1 X67.621 Y113.184 E62.41979
G1 X67.595 Y112.588 E62.57442
G1 X67.568 Y111.266 E62.91715
G1 X67.551 Y110.087 E63.22278
G1 X67.574 Y109.054 E63.4906
G1 X67.583 Y108.905 E63.52929
G1 X67.67 Y108.001 E63.76469
G1 X67.69 Y107.843 E63.80597
G1 X67.841 Y106.959 E64.03842
G1 X67.876 Y106.794 E64.08214
G1 X68.148 Y105.722 E64.36881
G1 X68.183 Y105.593 E64.40346
G1 X68.451 Y104.704 E64.64413
G1 X68.852 Y103.553 E64.96005
G1 X69.033 Y103.101 E65.08626
G1 X69.48 Y102.102 E65.36994
G1 X69.729 Y101.595 E65.51635
G1 X69.785 Y101.485 E65.54834
G1 X70.224 Y100.673 E65.7876
G1 X70.329 Y100.496 E65.84094
G1 X71.098 Y99.296 E66.21037
G1 X71.424 Y98.57 E66.41665
G1 X71.623 Y97.911 E66.59508
G1 X71.758 Y96.931 E66.8515
G1 X71.763 Y96.819 E66.88056
G1 X71.852 Y95.735 E67.16247
G1 X71.944 Y95 E67.35447
G1 X71.958 Y94.902 E67.38013
G1 X72.158 Y93.723 E67.69009
G1 X72.27 Y93.188 E67.83177
G1 X72.507 Y92.26 E68.08003
G1 X72.557 Y92.091 E68.12571
G1 X72.845 Y91.228 E68.36153
G1 X73.073 Y90.605 E68.53349
G1 X73.129 Y90.465 E68.57257
G1 X73.686 Y89.197 E68.93155
G1 X73.68 Y89.194 E68.93329
G1 X73.928 Y88.597 E69.10085
G1 X74.008 Y88.423 E69.15049
G1 X74.411 Y87.622 E69.3829
G1 X74.495 Y87.473 E69.42724
G1 X75.246 Y86.268 E69.79527
G1 X75.622 Y85.725 E69.96646
G1 X76.22 Y84.936 E70.22307
G1 X76.77 Y84.298 E70.44141
G1 X76.923 Y84.112 E70.50384
G1 X77.863 Y83.08 E70.86566
G1 X77.859 Y83.076 E70.86713
G1 X78.323 Y82.506 E71.05763
G1 X78.944 Y81.798 E71.30174
G1 X79.085 Y81.65 E71.35472
G0 F7200 X78.4 Y82.418
G1 F1012.5 X78.4 Y139.942 E86.26494
G0 F7200 X80 Y141.478
G1 F1012.5 X80 Y80.764 E102.00201
G0 F7200 X81.6 Y79.348
G1 F1012.5 X81.6 Y142.656 E118.41145
G0 F7200 X83.2 Y143.685
G1 F1012.5 X83.2 Y77.932 E135.45462
G0 F7200 X84.8 Y76.515
G1 F1012.5 X84.8 Y144.482 E153.07167
G0 F7200 X86.4 Y145.296
G1 F1012.5 X86.4 Y75.215 E171.23666
G0 F7200 X88 Y74.211
G1 F1012.5 X88 Y146.92 E190.08284
G0 F7200 X89.6 Y148.421
G1 F1012.5 X89.6 Y73.361 E209.53839
G0 F7200 X91.2 Y72.518
G1 F1012.5 X91.2 Y149.715 E229.54785
G0 F7200 X92.8 Y150.751
G1 F1012.5 X92.8 Y71.675 E250.04435
G0 F7200 X94.4 Y70.751
G1 F1012.5 X94.4 Y151.534 E270.9833
G0 F7200 X96 Y152.174
G1 F1012.5 X96 Y69.999 E292.28306
G0 F7200 X97.6 Y69.41
G1 F1012.5 X97.6 Y152.727 E313.87883
G0 F7200 X99.2 Y153.25
G1 F1012.5 X99.2 Y69.005 E335.71513
G0 F7200 X100.8 Y68.778
G1 F1012.5 X100.8 Y153.625 E357.70748
G0 F7200 X102.4 Y153.959
G1 F1012.5 X102.4 Y68.608 E379.83046
G0 F7200 X104 Y68.505
G1 F1012.5 X104 Y154.288 E402.06541
G0 F7200 X105.6 Y154.546
G1 F1012.5 X105.6 Y68.572 E424.34987
G0 F7200 X107.2 Y68.749
G1 F1012.5 X107.2 Y154.646 E446.61437
G0 F7200 X108.8 Y154.648
G1 F1012.5 X108.8 Y68.987 E468.8177
G0 F7200 X110.4 Y69.36
G1 F1012.5 X110.4 Y154.648 E490.92435
G0 F7200 X112 Y154.648
G1 F1012.5 X112 Y69.423 E513.01467
G0 F7200 X113.6 Y69.062
G1 F1012.5 X113.6 Y154.648 E535.19857
G0 F7200 X115.2 Y154.648
G1 F1012.5 X115.2 Y68.755 E557.46203
G0 F7200 X116.8 Y68.62
G1 F1012.5 X116.8 Y154.604 E579.74908
G0 F7200 X118.4 Y154.4
G1 F1012.5 X118.4 Y68.618 E601.98378
G0 F7200 X120 Y68.649
G1 F1012.5 X120 Y154.086 E624.12905
G0 F7200 X121.6 Y153.76
G1 F1012.5 X121.6 Y68.708 E646.17453
G0 F7200 X123.2 Y68.904
G1 F1012.5 X123.2 Y153.414 E668.07952
G0 F7200 X124.8 Y152.925
G1 F1012.5 X124.8 Y69.238 E689.77119
G0 F7200 X126.4 Y69.749
G1 F1012.5 X126.4 Y152.385 E711.19044
G0 F7200 X128 Y151.817
G1 F1012.5 X128 Y70.449 E732.28103
G0 F7200 X129.6 Y71.309
G1 F1012.5 X129.6 Y151.044 E752.94834
G0 F7200 X131.2 Y150.044
G1 F1012.5 X131.2 Y72.199 E773.12576
G0 F7200 X132.8 Y73.04
G1 F1012.5 X132.8 Y148.757 E792.75161
G0 F7200 X134.4 Y147.205
G1 F1012.5 X134.4 Y73.881 E811.75719
G0 F7200 X136 Y74.795
G1 F1012.5 X136 Y145.372 E830.05075
G0 F7200 X137.6 Y144.403
G1 F1012.5 X137.6 Y75.994 E847.78236
G0 F7200 X139.2 Y77.395
G1 F1012.5 X139.2 Y143.667 E864.96006
G0 F7200 X140.8 Y142.772
G1 F1012.5 X140.8 Y78.813 E881.53824
G0 F7200 X142.4 Y80.232
G1 F1012.5 X142.4 Y141.692 E897.46867
G0 F7200 X144 Y140.388
G1 F1012.5 X144 Y81.757 E912.66582
G0 F7200 X145.6 Y83.522
G1 F1012.5 X145.6 Y138.668 E926.95967
G0 F7200 X147.2 Y136.66
G1 F1012.5 X147.2 Y85.486 E940.22397
G0 F7200 X148.8 Y88.387
G1 F1012.5 X148.8 Y134.123 E952.07874
G0 F7200 X150.4 Y131.267
G1 F1012.5 X150.4 Y92.39 E962.15566
G0 F7200 X152 Y99.29
G1 F1012.5 X152 Y127.171 E969.38241
G0 F7200 X153.6 Y122.929
G1 F1012.5 X153.6 Y102.572 E974.65895
G0 F7200 X155.2 Y108.053
G1 F1012.5 X155.2 Y114.747 E976.39403
G0 F7200 X76.8 Y137.954
G1 F1012.5 X76.8 Y84.261 E990.31126
G0 F7200 X75.2 Y86.341
G1 F1012.5 X75.2 Y135.789 E1003.12818
G0 F7200 X73.6 Y133.085
G1 F1012.5 X73.6 Y89.392 E1014.4534
G0 F7200 X72 Y94.654
G1 F1012.5 X72 Y129.797 E1023.56247
G0 F7200 X70.4 Y125.577
G1 F1012.5 X70.4 Y100.385 E1030.09224
G0 F7200 X68.8 Y103.702
G1 F1012.5 X68.8 Y120.639 E1034.48231
G0 F600 X68.8 Y120.639 Z0.474
G0 F7200 X77.983 Y139.543
;TIME_ELAPSED:243.361525
;LAYER:-7
;TYPE:SUPPORT
G1 F1012.5 X78.076 Y139.654 E1034.49751
G1 X78.696 Y140.345 E1034.59499
G1 X78.799 Y140.452 E1034.61059
G1 X79.463 Y141.091 E1034.70735
G1 X79.591 Y141.204 E1034.72527
G1 X80.354 Y141.836 E1034.8293
G1 X80.994 Y142.3 E1034.91231
G1 X81.67 Y142.764 E1034.9984
G1 X76.286 Y137.38 E1035.79788
G1 X76.158 Y137.217 E1035.81964
G1 X75.832 Y136.789 E1035.87613
G1 X75.738 Y136.661 E1035.89281
G1 X74.985 Y135.566 E1036.03235
G1 X74.867 Y135.379 E1036.05556
G1 X74.41 Y134.627 E1036.14796
G1 X74.346 Y134.518 E1036.16123
G1 X73.903 Y133.724 E1036.2567
G1 X84.661 Y144.482 E1037.85418
G1 X84.76 Y144.525 E1037.86552
G1 X85.191 Y144.693 E1037.91409
G1 X85.818 Y144.985 E1037.98671
G1 X86.388 Y145.348 E1038.05767
G1 X86.909 Y145.78 E1038.12873
G1 X87.364 Y146.266 E1038.19863
G1 X87.69 Y146.66 E1038.25233
G1 X87.794 Y146.776 E1038.26869
G1 X88.405 Y147.416 E1038.3616
G1 X88.549 Y147.556 E1038.38268
G1 X89.308 Y148.241 E1038.49004
G1 X90.402 Y149.16 E1038.64006
G1 X90.523 Y149.256 E1038.65628
G1 X91.324 Y149.872 E1038.76237
G1 X72.445 Y130.994 E1041.56569
G1 X72.164 Y130.359 E1041.6386
G1 X72.11 Y130.227 E1041.65358
G1 X71.595 Y128.871 E1041.80588
G1 X94.24 Y151.516 E1045.16849
G1 X94.378 Y151.578 E1045.18437
G1 X95.262 Y151.945 E1045.28488
G1 X95.387 Y151.995 E1045.29901
G1 X96.206 Y152.305 E1045.39096
G1 X96.351 Y152.354 E1045.40703
G1 X70.818 Y126.821 E1049.19849
G1 X70.041 Y124.771 E1049.42868
G1 X98.277 Y153.008 E1053.62159
G1 X98.548 Y153.099 E1053.6516
G1 X99.149 Y153.287 E1053.71772
G1 X99.286 Y153.325 E1053.73265
G1 X100.057 Y153.514 E1053.816
G1 X69.295 Y122.752 E1058.38393
G1 X69.152 Y122.328 E1058.43091
G1 X69.103 Y122.16 E1058.44929
G1 X68.813 Y120.997 E1058.57514
